lib/healthicons/icons/solid/devices/surgical_sterilization.svg

<svg fill="none" height="48" viewBox="0 0 48 48" width="48" xmlns="http://www.w3.org/2000/svg"><g fill="#333"><path clip-rule="evenodd" d="m26.185 36.6489c-.6281-.4104-1.3787-.6489-2.1849-.6489-2.2092 0-4 1.7909-4 4s1.7908 4 4 4c2.199 0 3.9836-1.7746 3.9998-3.9698l.2236-4.018h1.5531l.2236 4.018c.0162 2.1952 1.8008 3.9698 3.9999 3.9698 2.2091 0 4-1.7909 4-4s-1.7909-4-4-4c-.8063 0-1.5569.2385-2.185.6489l-1.8166-32.6489-.9984.05555-.9985-.05555zm3.4803-2.6367-.6652-11.9564-.6653 11.9564zm.3347-15.976c0 .5515-.4477.9986-1 .9986-.5522 0-1-.4471-1-.9986s.4478-.9986 1-.9986c.5523 0 1 .4471 1 .9986zm-7.9999 21.9638c0-1.1046.8954-2 2-2 1.1045 0 2 .8954 2 2s-.8955 2-2 2c-1.1046 0-2-.8954-2-2zm12-2c-1.1046 0-2 .8954-2 2s.8954 2 2 2c1.1045 0 2-.8954 2-2s-.8955-2-2-2z" fill-rule="evenodd"/><path d="m15.0001 15v-11s-3.478 2.26067-3.9478 10.998c-.0593 1.103.8432 2.002 1.9478 2.002 1.1045 0 2-.8954 2-2z"/><path d="m12.0001 20.5c0-.8284.6715-1.5 1.5-1.5.8284 0 1.5.6716 1.5 1.5v.0858l-3 3z"/><path d="m12.0001 26.4142v1.6716l3-3v-1.6716z"/><path d="m12.0001 32.5858v-1.6716l3-3v1.6716z"/><path d="m12.0001 35.4142v7.0858c0 .8284.6715 1.5 1.5 1.5.8284 0 1.5-.6716 1.5-1.5v-10.0858z"/></g></svg>

<svg width="48" height="48" viewBox="0 0 48 48" fill="none" xmlns="http://www.w3.org/2000/svg">
<path fill-rule="evenodd" clip-rule="evenodd" d="M26.1849 36.6489C25.5568 36.2385 24.8063 36 24 36C21.7909 36 20 37.7909 20 40C20 42.2091 21.7909 44 24 44C26.1991 44 27.9836 42.2254 27.9999 40.0302L28.2234 36.0122L29.7765 36.0122L30.0001 40.0302C30.0163 42.2254 31.8009 44 34 44C36.2091 44 38 42.2091 38 40C38 37.7909 36.2091 36 34 36C33.1937 36 32.4432 36.2385 31.8151 36.6489L29.9985 4L29 4.05555L28.0015 4L26.1849 36.6489ZM29.6653 34.0122L29 22.0558L28.3347 34.0122H29.6653ZM30 18.0362C30 18.5877 29.5523 19.0348 29 19.0348C28.4477 19.0348 28 18.5877 28 18.0362C28 17.4847 28.4477 17.0376 29 17.0376C29.5523 17.0376 30 17.4847 30 18.0362ZM22 40C22 38.8954 22.8954 38 24 38C25.1046 38 26 38.8954 26 40C26 41.1046 25.1046 42 24 42C22.8954 42 22 41.1046 22 40ZM34 38C32.8954 38 32 38.8954 32 40C32 41.1046 32.8954 42 34 42C35.1046 42 36 41.1046 36 40C36 38.8954 35.1046 38 34 38Z" fill="#333333"/>
<path d="M15 15V4C15 4 11.522 6.26067 11.0523 14.998C10.993 16.101 11.8954 17 13 17C14.1046 17 15 16.1046 15 15Z" fill="#333333"/>
<path d="M12 20.5C12 19.6716 12.6716 19 13.5 19C14.3284 19 15 19.6716 15 20.5V20.5858L12 23.5858V20.5Z" fill="#333333"/>
<path d="M12 26.4142V28.0858L15 25.0858V23.4142L12 26.4142Z" fill="#333333"/>
<path d="M12 32.5858V30.9142L15 27.9142V29.5858L12 32.5858Z" fill="#333333"/>
<path d="M12 35.4142V42.5C12 43.3284 12.6716 44 13.5 44C14.3284 44 15 43.3284 15 42.5V32.4142L12 35.4142Z" fill="#333333"/>
</svg>
